packages/foundations/assets/icons/functional/images/human/shower_24.svg

<svg width="24" height="24" viewBox="0 0 24 24" fill="none" xmlns="http://www.w3.org/2000/svg">
<g clip-path="url(#clip0_185_1166)">
<path fill-rule="evenodd" clip-rule="evenodd" d="M9.99816 16.0023C11.5959 16.0023 12.9942 17.2743 12.9983 19.0024C12.9998 19.6674 12.9998 20.3324 12.9983 20.9975C12.9983 21.5498 12.5505 21.9976 11.9982 21.9976C11.4853 21.9976 10.9999 21.5961 10.998 20.9975C10.9959 20.3325 10.9959 19.6674 10.998 19.0024C10.998 18.4896 10.6254 18.0033 9.99816 18.0025C8.33501 18.0003 6.67165 18.0003 5.00808 18.0025C4.49531 18.0025 4.01015 18.3939 4.00821 19.0024C4.00609 19.6674 4.00274 20.3341 3.99816 21.0024C3.99816 21.5547 3.56044 21.9976 3.00808 21.9976C2.49518 21.9976 1.93583 21.5559 2.00796 20.9975C2.00584 20.3325 2.00584 19.6674 2.00796 19.0024C2.00796 17.4046 3.35259 16.0023 5.00808 16.0023C6.67136 16.0006 8.33472 16.0006 9.99816 16.0023ZM16.1503 12.9725C16.4428 12.5042 17.0598 12.3619 17.5282 12.6544C17.9965 12.9468 18.1391 13.5636 17.8464 14.0317C17.5537 14.4998 16.9369 14.6423 16.4685 14.3497C16 14.0572 15.8576 13.4406 16.1503 12.9725ZM12.1338 12.499C12.4111 12.022 13.023 11.8605 13.5004 12.1384C13.978 12.4164 14.1401 13.0285 13.8626 13.5055C13.585 13.9827 12.9731 14.1443 12.4957 13.8663C12.0184 13.5884 11.8562 12.9763 12.1338 12.499ZM20.4948 12.1378C20.972 11.8605 21.5843 12.0227 21.8623 12.5C22.14 12.9774 21.9784 13.5894 21.5015 13.8669C21.0243 14.1443 20.4122 13.9821 20.1343 13.5047C19.8563 13.0271 20.0176 12.4152 20.4948 12.1378ZM7.51768 6.94018C9.44815 6.94018 10.9982 8.49019 10.9982 10.4207C10.9982 12.3539 9.44568 13.9402 7.51768 13.9402C5.58722 13.9402 3.99816 12.3511 3.99816 10.4207C3.99816 8.49265 5.58448 6.94018 7.51768 6.94018ZM7.51768 8.94018C6.67951 8.94018 5.99816 9.60699 5.99816 10.4207C5.99816 11.2466 6.69179 11.9402 7.51768 11.9402C8.33134 11.9402 8.99816 11.2588 8.99816 10.4207C8.99816 9.59476 8.34358 8.94018 7.51768 8.94018ZM16.1502 9.97235C16.4429 9.50419 17.0599 9.36188 17.528 9.65441C17.9967 9.94678 18.1391 10.5634 17.8464 11.0316C17.5538 11.4999 16.9368 11.6422 16.4683 11.3497C16 11.0573 15.8576 10.4407 16.1502 9.97235ZM13.1336 9.49924C13.411 9.02204 14.0231 8.86046 14.5005 9.13843C14.9779 9.4164 15.1401 10.0285 14.8627 10.5057C14.5851 10.9829 13.9732 11.1442 13.4958 10.8663C13.0184 10.5885 12.8563 9.97622 13.1336 9.49924ZM19.4948 9.13799C19.972 8.86042 20.5841 9.02258 20.8621 9.49996C21.1401 9.97735 20.9785 10.5893 20.5015 10.8669C20.0243 11.1442 19.4122 10.9823 19.1342 10.5047C18.8562 10.0273 19.0178 9.41535 19.4948 9.13799ZM16.9982 2.00238C17.511 2.00238 17.9914 2.41598 17.9914 3.00238L17.9988 5.53183C19.0805 5.59551 20.1614 5.76241 21.2407 6.03224C21.7765 6.16619 22.1022 6.70912 21.9683 7.24492C21.8343 7.78071 21.2914 8.10647 20.7556 7.97252C19.501 7.65887 18.2491 7.50238 16.9982 7.50238C15.7472 7.50238 14.4953 7.65887 13.2407 7.97252C12.7049 8.10647 12.162 7.78071 12.028 7.24492C11.8941 6.70912 12.2198 6.16619 12.7556 6.03224C13.8353 5.76233 14.9165 5.5954 15.9985 5.53177L15.9982 3.00238C15.9982 2.4501 16.4459 2.00238 16.9982 2.00238Z" fill="#1A1C1F"/>
</g>
<defs>
<clipPath id="clip0_185_1166">
<rect width="24" height="24" fill="white"/>
</clipPath>
</defs>
</svg>

<svg xmlns="http://www.w3.org/2000/svg" width="24" height="24" fill="none"><g clip-path="url(#a)"><path fill="#1A1C1F" fill-rule="evenodd" d="M9.998 16.002a2.995 2.995 0 0 1 3 3q.003.997 0 1.995a1 1 0 0 1-2 0q-.003-.997 0-1.995c0-.512-.373-.999-1-1q-2.494-.003-4.99 0a.99.99 0 0 0-1 1q-.003.998-.01 2a.987.987 0 0 1-.99.996c-.513 0-1.072-.442-1-1q-.003-.998 0-1.996c0-1.597 1.345-3 3-3zm6.152-3.03a1 1 0 1 1 1.696 1.06 1 1 0 0 1-1.696-1.06m-4.016-.473a1 1 0 1 1 1.729 1.006 1 1 0 1 1-1.73-1.006m8.36-.361a1.001 1.001 0 0 1 1.008 1.729 1 1 0 0 1-1.007-1.73M7.519 6.94a3.47 3.47 0 0 1 3.48 3.48c0 1.934-1.552 3.52-3.48 3.52-1.93 0-3.52-1.589-3.52-3.52 0-1.927 1.586-3.48 3.52-3.48m0 2c-.838 0-1.52.667-1.52 1.48 0 .827.694 1.52 1.52 1.52.813 0 1.48-.681 1.48-1.52a1.47 1.47 0 0 0-1.48-1.48m8.632 1.032a1 1 0 1 1 1.696 1.06 1 1 0 0 1-1.696-1.06M13.134 9.5a1 1 0 1 1 1.727 1.005A1 1 0 0 1 13.134 9.5m6.36-.361a1 1 0 1 1 1.006 1.73 1 1 0 0 1-1.005-1.73m-2.496-7.136c.513 0 .993.414.993 1L18 5.532a17.6 17.6 0 0 1 3.242.5 1 1 0 0 1-.485 1.94 15.4 15.4 0 0 0-3.758-.47q-1.875 0-3.757.47a1 1 0 0 1-.485-1.94q1.62-.405 3.242-.5v-2.53a1 1 0 0 1 1-1" clip-rule="evenodd"/></g><defs><clipPath id="a"><path fill="#fff" d="M0 0h24v24H0z"/></clipPath></defs></svg>
